X:1
T:The Lord Descended from Above
T:William Billings, 1778
T:The Lord Descended from Above
T:Public Domain
T:Public Domain
C:William Billings, 1778
Z:Public Domain
%%score ( 1 2 ) ( 3 4 )
L:1/8
M:2/2
K:D
V:1 treble 
V:2 treble 
V:3 bass 
V:4 bass 
V:1
"^Tune in tenor" [DF]4 | (F2 E2 F2) [E^G]2 | E2 D2 A4 | [DB]4 [DA]4 | [FA]6 (FE) | %5
w: 1.~The|Lord * * de-|nd- ed from|And bowed|the heav- *|
w: 2.~And|from * * a-|~ the Lord|To fetch|me from *|
 [Dd]4 ([Dd]2 [Ec]2) | [Fd]4 (e2 c2) | A6 A2 | (G2 B4) G2 | (F2 A4) (dc) | (B4 A2) ^G2 | %11
w: high; And *|un- der- *|His feet|cast * The|dark- * ness *|of * the|
w: low, And *|plucked me *|of wa-|great * that|would * me *|ov- * er-|
 (z4 z2) A2 x2 | [DA-]2 [A,F]2 D2 z F | [FA]6 (E=G) | ([FA]2 [EB]2 [DA]2) [CEA]2 | [DFA]8 | z8 | %17
w: sky.||al- ly *|rode; * * And|on||
w: flow.||have made *|thrall; * * Yea,|from||
 z8 | z4 [DF]4 | [FA]2 [FA]2 [EB]2 (A^G) | ([FA]4- [FA][EG])([DF][EG]) | [FA]2 [FA]2 [FA]2 [DF]2 | %22
w: |the|wings of all the *|Came * * fly- *|ing all a- broad;|
w: |such|foes as were too *|For * * me *|to deal with- al;|
 [EG]2 [EG]2 [EG]2 [DA]2 | [Dd]2 (AB) [Gc]2 [Fd]2 | (c3 B A2) [EA]2 | [FA]2 [DF]2 [EG]2 [EG]2 | %26
w: And on the wings|of all * the winds|fly- * * ing|a- broad. * *|
w: Yea, from such foes|as were * too strong|me * * to|with- al. * *|
 [DF]2 [FA]2 [EG]2 [EG]2 | [DF]2 [DB]2 [DA]2 [CEA]2 | [DFA]8 |] %29
w: |||
w: |||
V:2
 x4 | A6 x2 | A4 A4 | x8 | x6 A2 | x8 | x4 E4 | F8 | x8 | x8 | x8 | (A6 E4 | x4 D2) F2 | x6 ^G2 | %14
w: |sce-|a- bove,||ens||neath|He||||Full *|* roy-|He|
w: |bove|sent down||be-||out|ters||||That *|* would|me|
 x8 | x8 | x8 | x8 | x8 | x6 E2 | x8 | x8 | x8 | x2 F2 x4 | E4 x4 | x8 | x8 | x8 | x8 |] %29
w: |||||winds||||Came|all|||||
w: |||||strong||||For|deal|||||
V:3
 [D,A,]4 | ([D,D]2 [A,,C]2 [D,D]2) [E,B,]2 | [A,,A,]2 [D,F,]2 [D,F,]4 | G,4 [F,A,]2 [D,F,]2 | %4
 [D,D]6 [F,C]2 | [G,B,]4 ([F,A,]2 [E,^G,]2) | (D,2 F,2) (B,2 C2) | D6 A,2 | (B,2 G,2 E,2) B,2 | %9
 (A,2 F,2) D,2 A,2 | [E,G,]2 [D,F,]2 [C,E,]2 [B,,D,]2 | [A,,A,]6 [A,,G,]2 x2 | F,2 D,2- F,2 A,2 | %13
 [D,,D,D]6 (CB,) | [F,,F,A,]2 [G,,G,]2 [A,,F,A,]2 [A,,E,]2 | [D,,D,]8 | z4 [D,,D,]4 | %17
 [F,,F,]2 [D,,D,]2 [E,,E,]2 [G,,G,]2 | [F,,F,]2 [D,,D,]2 [D,,D,]2 [D,,D,]2 | %19
 [D,,D,D]2 [F,,F,C]2 [G,,G,B,]2 [A,,A,C]2 | [D,,F,D]6 [D,,D,A,]2 | %21
 [D,,D,D]2 [D,,D,D]2 [D,,D,D]2 [F,,F,A,]2 | [E,,E,B,]2 [E,,E,B,]2 [E,,E,B,]2 [D,,D,A,]2 | %23
 [G,,G,B,]2 [F,,F,D]2 [E,,E,C]2 [D,,D,B,]2 | [A,,A,]6 [A,,A,]2 | %25
 [D,,D,D]2 [F,,F,A,]2 [E,,E,B,]2 [E,,E,G,]2 | [F,,F,A,]2 [D,,D,D]2 [E,,E,C]2 [E,,E,B,]2 | %27
 [F,,F,A,]2 [G,,G,]2 [A,,F,A,]2 [A,,E,]2 | [D,,D,]8 |] %29
V:4
 x4 | x8 | x8 | G,4 x4 | x8 | x8 | A,4 E,4 | D,8 | x8 | x4 D,4 | x8 | x10 | [D,,-D,]8 | %13
 x6 [E,,E,]2 | x8 | D,8 | x8 | x8 | x2 A,4 x2 | x8 | x8 | x8 | x8 | x8 | x8 | x8 | x8 | G,2 x6 | %28
 D,8 |] %29

